X:476
T:Lochrynach
R:Reel
B:The Athole Collection
M:C|
L:1/8
K:G
G2 Bd c>AF>D|G2 Bd c2 c>f|g>dB>d e>cA>c|B>GA>F G2G,2:|
g2 fg/a/ gdBG|g2 fg/a/ g2b2|g>dB>d e>cA>c|BGAF G2G,2|
g2 fg/a/ g>dB>G|g2 fg/a/ g2b2|g>dB>d ceAc|Bc/d/ D>F G2G,2||

